src/assets/acessibilidade-web/logo-apeperia.svg

<svg width="205" height="59" viewBox="0 0 205 59" version="1.1" xmlns="http://www.w3.org/2000/svg" xmlns:xlink="http://www.w3.org/1999/xlink">
<title>Logo do Apeperia</title>
<desc>Created using Figma</desc>
<g id="Canvas" transform="translate(-2230 1001)">
<g id="Logo do Apeperia">
<g id="Oval 1">
<use xlink:href="#path0_fill" transform="translate(2230 -988.755)" fill="#B72E2E"/>
</g>
<g id="a">
<use xlink:href="#path1_fill" transform="translate(2239 -1001)" fill="#333333"/>
</g>
<g id="apeperia">
<use xlink:href="#path2_fill" transform="translate(2287.13 -993.208)" fill="#FFFFFF"/>
</g>
</g>
</g>
<defs>
<path id="path0_fill" fill-rule="evenodd" d="M 22.4044 44.5283C 34.778 44.5283 44.8087 34.5603 44.8087 22.2642C 44.8087 9.968 34.778 0 22.4044 0C 10.0308 0 0 9.968 0 22.2642C 0 34.5603 10.0308 44.5283 22.4044 44.5283Z"/>
<path id="path1_fill" d="M 16.8684 47C 16.6944 46.6086 16.5422 46.21 16.4118 45.8042C 16.2813 45.3838 16.1799 44.9635 16.1074 44.5431C 15.3537 45.4128 14.4332 46.1158 13.3461 46.6521C 12.2735 47.1884 11.0414 47.4566 9.64991 47.4566C 7.34522 47.4566 5.51162 46.8333 4.1491 45.5867C 2.80108 44.3257 2.12706 42.6153 2.12706 40.4556C 2.12706 38.2523 3.01125 36.5492 4.77963 35.3461C 6.54801 34.143 9.14259 33.5415 12.5634 33.5415L 15.803 33.5415L 15.803 31.2368C 15.803 30.1062 15.4769 29.2293 14.8246 28.606C 14.1723 27.9827 13.2084 27.6711 11.9329 27.6711C 11.2081 27.6711 10.5631 27.758 9.99779 27.932C 9.43249 28.0914 8.9759 28.2871 8.62802 28.519L 8.21492 31.0411L 3.4316 31.0411L 3.45335 25.823C 4.61294 25.0402 5.93922 24.3807 7.43219 23.8444C 8.93966 23.3081 10.5776 23.0399 12.346 23.0399C 15.2594 23.0399 17.6221 23.7574 19.434 25.1924C 21.2603 26.6129 22.1735 28.6422 22.1735 31.2803L 22.1735 40.9991C 22.1735 41.3615 22.1735 41.7021 22.1735 42.021C 22.188 42.3399 22.217 42.6443 22.2605 42.9342L 24.1955 43.1951L 24.1955 47L 16.8684 47ZM 11.3676 42.7602C 12.3242 42.7602 13.1939 42.5573 13.9766 42.1515C 14.7594 41.7311 15.3681 41.2093 15.803 40.586L 15.803 36.9985L 12.5634 36.9985C 11.2154 36.9985 10.1935 37.3174 9.49772 37.9552C 8.80196 38.5785 8.45408 39.3322 8.45408 40.2164C 8.45408 41.0136 8.70774 41.6369 9.21507 42.0862C 9.73688 42.5356 10.4544 42.7602 11.3676 42.7602Z"/>
<path id="path2_fill" d="M 13.0802 37C 12.941 36.6869 12.8193 36.368 12.7149 36.0433C 12.6106 35.7071 12.5294 35.3708 12.4714 35.0345C 11.8684 35.7302 11.1321 36.2926 10.2624 36.7217C 9.40429 37.1507 8.41863 37.3653 7.30542 37.3653C 5.46167 37.3653 3.99479 36.8666 2.90478 35.8694C 1.82636 34.8606 1.28715 33.4922 1.28715 31.7644C 1.28715 30.0019 1.9945 28.6393 3.4092 27.6769C 4.8239 26.7144 6.89957 26.2332 9.6362 26.2332L 12.2279 26.2332L 12.2279 24.3894C 12.2279 23.485 11.967 22.7834 11.4452 22.2848C 10.9233 21.7862 10.1522 21.5369 9.13178 21.5369C 8.55199 21.5369 8.03597 21.6064 7.58373 21.7456C 7.13149 21.8731 6.76621 22.0297 6.48791 22.2152L 6.15743 24.2329L 2.33078 24.2329L 2.34817 20.0584C 3.27585 19.4322 4.33687 18.9046 5.53125 18.4755C 6.73723 18.0465 8.04756 17.832 9.46226 17.832C 11.793 17.832 13.6832 18.406 15.1327 19.5539C 16.5938 20.6903 17.3243 22.3138 17.3243 24.4242L 17.3243 32.1993C 17.3243 32.4892 17.3243 32.7617 17.3243 33.0168C 17.3359 33.2719 17.3591 33.5154 17.3939 33.7473L 18.9419 33.9561L 18.9419 37L 13.0802 37ZM 8.67954 33.6082C 9.44487 33.6082 10.1406 33.4459 10.7668 33.1212C 11.393 32.7849 11.88 32.3674 12.2279 31.8688L 12.2279 28.9988L 9.6362 28.9988C 8.55778 28.9988 7.74027 29.2539 7.18367 29.7642C 6.62706 30.2628 6.34876 30.8658 6.34876 31.5731C 6.34876 32.2109 6.55169 32.7095 6.95755 33.069C 7.375 33.4285 7.949 33.6082 8.67954 33.6082ZM 20.2986 21.2412L 20.2986 18.1798L 27.6736 18.1798L 27.9172 20.3715C 28.4738 19.5597 29.1405 18.9336 29.9175 18.4929C 30.6944 18.0523 31.5989 17.832 32.6309 17.832C 34.9617 17.832 36.7706 18.7422 38.0578 20.5628C 39.3449 22.3834 39.9885 24.7779 39.9885 27.7465L 39.9885 28.1117C 39.9885 30.8948 39.3449 33.1328 38.0578 34.8258C 36.7706 36.5188 34.9733 37.3653 32.6657 37.3653C 31.68 37.3653 30.8045 37.1855 30.0392 36.8261C 29.2739 36.455 28.6187 35.9158 28.0737 35.2084L 28.0737 40.6527L 30.5262 41.1745L 30.5262 44.2358L 20.5596 44.2358L 20.5596 41.1745L 23.0121 40.6527L 23.0121 21.763L 20.2986 21.2412ZM 34.9095 27.7465C 34.9095 25.9723 34.6138 24.5344 34.0224 23.4328C 33.431 22.3312 32.5265 21.7804 31.309 21.7804C 30.5436 21.7804 29.8885 21.9369 29.3435 22.25C 28.81 22.5631 28.3868 23.0095 28.0737 23.5893L 28.0737 31.834C 28.3868 32.3674 28.81 32.7733 29.3435 33.0516C 29.8885 33.3299 30.5552 33.469 31.3438 33.469C 32.5729 33.469 33.4716 32.9878 34.0398 32.0254C 34.6196 31.0629 34.9095 29.7584 34.9095 28.1117L 34.9095 27.7465ZM 51.2597 37.3653C 48.5463 37.3653 46.3779 36.4956 44.7544 34.7562C 43.131 33.0168 42.3193 30.8078 42.3193 28.1291L 42.3193 27.4334C 42.3193 24.6388 43.0846 22.337 44.6153 20.528C 46.1575 18.719 48.2216 17.8204 50.8075 17.832C 53.347 17.832 55.3183 18.5973 56.7214 20.1279C 58.1245 21.6586 58.8261 23.7285 58.8261 26.3376L 58.8261 29.1032L 47.5896 29.1032L 47.5548 29.2075C 47.6476 30.4483 48.0593 31.4687 48.7898 32.2689C 49.5319 33.069 50.535 33.469 51.7989 33.469C 52.9237 33.469 53.8572 33.3589 54.5994 33.1386C 55.3415 32.9066 56.1532 32.5472 57.0345 32.0601L 58.4086 35.191C 57.6317 35.8056 56.6228 36.3216 55.3821 36.7391C 54.1529 37.1565 52.7788 37.3653 51.2597 37.3653ZM 50.8075 21.7456C 49.8682 21.7456 49.1261 22.1051 48.5811 22.824C 48.0361 23.5429 47.6998 24.488 47.5722 25.6592L 47.6244 25.7462L 53.8514 25.7462L 53.8514 25.2939C 53.8514 24.2155 53.5963 23.3574 53.0861 22.7196C 52.5875 22.0703 51.8279 21.7456 50.8075 21.7456ZM 60.8611 21.2412L 60.8611 18.1798L 68.2361 18.1798L 68.4797 20.3715C 69.0363 19.5597 69.703 18.9336 70.48 18.4929C 71.2569 18.0523 72.1614 17.832 73.1934 17.832C 75.5242 17.832 77.3331 18.7422 78.6203 20.5628C 79.9074 22.3834 80.551 24.7779 80.551 27.7465L 80.551 28.1117C 80.551 30.8948 79.9074 33.1328 78.6203 34.8258C 77.3331 36.5188 75.5358 37.3653 73.2282 37.3653C 72.2425 37.3653 71.367 37.1855 70.6017 36.8261C 69.8364 36.455 69.1812 35.9158 68.6362 35.2084L 68.6362 40.6527L 71.0887 41.1745L 71.0887 44.2358L 61.1221 44.2358L 61.1221 41.1745L 63.5746 40.6527L 63.5746 21.763L 60.8611 21.2412ZM 75.472 27.7465C 75.472 25.9723 75.1763 24.5344 74.5849 23.4328C 73.9935 22.3312 73.089 21.7804 71.8715 21.7804C 71.1061 21.7804 70.451 21.9369 69.906 22.25C 69.3725 22.5631 68.9493 23.0095 68.6362 23.5893L 68.6362 31.834C 68.9493 32.3674 69.3725 32.7733 69.906 33.0516C 70.451 33.3299 71.1177 33.469 71.9063 33.469C 73.1354 33.469 74.0341 32.9878 74.6023 32.0254C 75.1821 31.0629 75.472 29.7584 75.472 28.1117L 75.472 27.7465ZM 91.8222 37.3653C 89.1088 37.3653 86.9404 36.4956 85.3169 34.7562C 83.6935 33.0168 82.8818 30.8078 82.8818 28.1291L 82.8818 27.4334C 82.8818 24.6388 83.6471 22.337 85.1778 20.528C 86.72 18.719 88.7841 17.8204 91.37 17.832C 93.9095 17.832 95.8808 18.5973 97.2839 20.1279C 98.687 21.6586 99.3886 23.7285 99.3886 26.3376L 99.3886 29.1032L 88.1521 29.1032L 88.1173 29.2075C 88.2101 30.4483 88.6218 31.4687 89.3523 32.2689C 90.0944 33.069 91.0975 33.469 92.3614 33.469C 93.4862 33.469 94.4197 33.3589 95.1619 33.1386C 95.904 32.9066 96.7157 32.5472 97.597 32.0601L 98.9711 35.191C 98.1942 35.8056 97.1853 36.3216 95.9446 36.7391C 94.7154 37.1565 93.3413 37.3653 91.8222 37.3653ZM 91.37 21.7456C 90.4307 21.7456 89.6886 22.1051 89.1436 22.824C 88.5986 23.5429 88.2623 24.488 88.1347 25.6592L 88.1869 25.7462L 94.4139 25.7462L 94.4139 25.2939C 94.4139 24.2155 94.1588 23.3574 93.6486 22.7196C 93.15 22.0703 92.3904 21.7456 91.37 21.7456ZM 102.189 33.9561L 104.624 33.4343L 104.624 21.763L 101.928 21.2412L 101.928 18.1798L 109.355 18.1798L 109.581 20.9281C 110.022 19.954 110.59 19.1945 111.286 18.6495C 111.982 18.1045 112.788 17.832 113.704 17.832C 113.97 17.832 114.249 17.8551 114.539 17.9015C 114.84 17.9363 115.089 17.9827 115.287 18.0407L 114.747 22.6675L 112.66 22.6153C 111.918 22.6153 111.303 22.7602 110.816 23.0501C 110.329 23.34 109.958 23.7517 109.703 24.2851L 109.703 33.4343L 112.138 33.9561L 112.138 37L 102.189 37L 102.189 33.9561ZM 116.643 33.9561L 119.096 33.4343L 119.096 21.763L 116.382 21.2412L 116.382 18.1798L 124.175 18.1798L 124.175 33.4343L 126.61 33.9561L 126.61 37L 116.643 37L 116.643 33.9561ZM 124.175 13.6748L 119.096 13.6748L 119.096 9.86557L 124.175 9.86557L 124.175 13.6748ZM 140.264 37C 140.125 36.6869 140.003 36.368 139.899 36.0433C 139.795 35.7071 139.713 35.3708 139.655 35.0345C 139.052 35.7302 138.316 36.2926 137.446 36.7217C 136.588 37.1507 135.603 37.3653 134.489 37.3653C 132.646 37.3653 131.179 36.8666 130.089 35.8694C 129.01 34.8606 128.471 33.4922 128.471 31.7644C 128.471 30.0019 129.178 28.6393 130.593 27.6769C 132.008 26.7144 134.084 26.2332 136.82 26.2332L 139.412 26.2332L 139.412 24.3894C 139.412 23.485 139.151 22.7834 138.629 22.2848C 138.107 21.7862 137.336 21.5369 136.316 21.5369C 135.736 21.5369 135.22 21.6064 134.768 21.7456C 134.315 21.8731 133.95 22.0297 133.672 22.2152L 133.341 24.2329L 129.515 24.2329L 129.532 20.0584C 130.46 19.4322 131.521 18.9046 132.715 18.4755C 133.921 18.0465 135.232 17.832 136.646 17.832C 138.977 17.832 140.867 18.406 142.317 19.5539C 143.778 20.6903 144.508 22.3138 144.508 24.4242L 144.508 32.1993C 144.508 32.4892 144.508 32.7617 144.508 33.0168C 144.52 33.2719 144.543 33.5154 144.578 33.7473L 146.126 33.9561L 146.126 37L 140.264 37ZM 135.864 33.6082C 136.629 33.6082 137.325 33.4459 137.951 33.1212C 138.577 32.7849 139.064 32.3674 139.412 31.8688L 139.412 28.9988L 136.82 28.9988C 135.742 28.9988 134.924 29.2539 134.368 29.7642C 133.811 30.2628 133.533 30.8658 133.533 31.5731C 133.533 32.2109 133.736 32.7095 134.142 33.069C 134.559 33.4285 135.133 33.6082 135.864 33.6082Z"/>
</defs>
</svg>

<svg width="205" height="59" xmlns="http://www.w3.org/2000/svg" xmlns:xlink="http://www.w3.org/1999/xlink"><use xlink:href="#a" transform="translate(0 12.245)" fill="#B72E2E"/><use xlink:href="#b" transform="translate(9)" fill="#333"/><use xlink:href="#c" transform="translate(57.13 7.792)" fill="#FFF"/><defs><path id="a" fill-rule="evenodd" d="M22.404 44.528c12.374 0 22.405-9.968 22.405-22.264S34.778 0 22.404 0C10.031 0 0 9.968 0 22.264s10.03 22.264 22.404 22.264Z"/><path id="b" d="M16.868 47c-.174-.391-.326-.79-.456-1.196a9.96 9.96 0 0 1-.305-1.26 8.697 8.697 0 0 1-2.76 2.108c-1.073.536-2.306.805-3.697.805-2.305 0-4.138-.624-5.5-1.87-1.349-1.261-2.023-2.972-2.023-5.131 0-2.204.884-3.907 2.653-5.11 1.768-1.203 4.363-1.804 7.783-1.804h3.24v-2.305c0-1.13-.326-2.008-.978-2.631-.653-.623-1.617-.935-2.892-.935-.725 0-1.37.087-1.935.261-.566.16-1.022.355-1.37.587l-.413 2.522H3.432l.021-5.218c1.16-.783 2.486-1.442 3.98-1.979 1.507-.536 3.145-.804 4.913-.804 2.913 0 5.276.717 7.088 2.152 1.826 1.42 2.74 3.45 2.74 6.088v10.741c.014.319.043.623.087.913l1.934.261V47h-7.327Zm-5.5-4.24c.956 0 1.826-.203 2.609-.608.782-.42 1.391-.943 1.826-1.566v-3.587h-3.24c-1.348 0-2.37.318-3.065.956-.696.623-1.044 1.377-1.044 2.261 0 .798.254 1.42.761 1.87.522.45 1.24.674 2.153.674Z"/><path id="c" d="M13.08 37a7.98 7.98 0 0 1-.609-1.965 6.96 6.96 0 0 1-2.209 1.687c-.858.429-1.843.643-2.957.643-1.843 0-3.31-.498-4.4-1.496-1.079-1.008-1.618-2.377-1.618-4.105 0-1.762.708-3.125 2.122-4.087 1.415-.963 3.49-1.444 6.227-1.444h2.592V24.39c0-.904-.261-1.606-.783-2.104-.522-.499-1.293-.748-2.313-.748-.58 0-1.096.07-1.548.209-.453.127-.818.284-1.096.47l-.33 2.017H2.33l.017-4.175c.928-.626 1.989-1.153 3.183-1.582 1.206-.43 2.517-.644 3.931-.644 2.331 0 4.221.574 5.67 1.722 1.462 1.136 2.192 2.76 2.192 4.87v8.593c.012.255.035.498.07.73l1.548.21V37H13.08Zm-4.4-3.392c.765 0 1.46-.162 2.087-.487.626-.336 1.113-.754 1.46-1.252v-2.87h-2.59c-1.08 0-1.897.255-2.453.765-.557.499-.835 1.102-.835 1.81 0 .637.203 1.135.609 1.495.417.36.991.54 1.722.54Zm11.619-12.367V18.18h7.375l.243 2.192c.557-.812 1.223-1.438 2-1.88.777-.44 1.682-.66 2.714-.66 2.33 0 4.14.91 5.427 2.73 1.287 1.821 1.93 4.216 1.93 7.184v.366c0 2.783-.643 5.02-1.93 6.714-1.287 1.693-3.085 2.54-5.392 2.54-.986 0-1.861-.18-2.627-.54a5.479 5.479 0 0 1-1.965-1.618v5.445l2.452.522v3.06H20.56v-3.06l2.452-.522v-18.89l-2.713-.522Zm14.61 6.506c0-1.775-.295-3.213-.887-4.314-.591-1.102-1.495-1.653-2.713-1.653-.765 0-1.42.157-1.966.47a3.37 3.37 0 0 0-1.27 1.34v8.244c.314.533.737.94 1.27 1.218.546.278 1.212.417 2 .417 1.23 0 2.129-.481 2.697-1.444.58-.962.87-2.267.87-3.913v-.365Zm16.35 9.618c-2.713 0-4.881-.87-6.505-2.609-1.623-1.74-2.435-3.948-2.435-6.627v-.696c0-2.794.766-5.096 2.296-6.905 1.542-1.809 3.607-2.708 6.192-2.696 2.54 0 4.511.765 5.914 2.296 1.404 1.53 2.105 3.6 2.105 6.21v2.765H47.59l-.035.104c.093 1.241.504 2.262 1.235 3.062.742.8 1.745 1.2 3.009 1.2 1.125 0 2.058-.11 2.8-.33.743-.232 1.554-.592 2.436-1.079l1.374 3.131c-.777.615-1.786 1.13-3.027 1.548-1.23.418-2.603.626-4.122.626Zm-.452-15.62c-.939 0-1.68.36-2.226 1.079-.545.719-.881 1.664-1.009 2.835l.052.087h6.227v-.452c0-1.079-.255-1.937-.765-2.574-.498-.65-1.258-.974-2.279-.974Zm10.054-.504V18.18h7.375l.244 2.192c.556-.812 1.223-1.438 2-1.88.777-.44 1.681-.66 2.713-.66 2.331 0 4.14.91 5.427 2.73 1.287 1.821 1.931 4.216 1.931 7.184v.366c0 2.783-.644 5.02-1.93 6.714-1.288 1.693-3.085 2.54-5.393 2.54-.985 0-1.861-.18-2.626-.54a5.479 5.479 0 0 1-1.966-1.618v5.445l2.453.522v3.06h-9.967v-3.06l2.453-.522v-18.89l-2.714-.522Zm14.611 6.506c0-1.775-.296-3.213-.887-4.314-.591-1.102-1.496-1.653-2.713-1.653-.766 0-1.421.157-1.966.47a3.37 3.37 0 0 0-1.27 1.34v8.244c.313.533.737.94 1.27 1.218.545.278 1.212.417 2 .417 1.23 0 2.128-.481 2.696-1.444.58-.962.87-2.267.87-3.913v-.365Zm16.35 9.618c-2.713 0-4.882-.87-6.505-2.609-1.623-1.74-2.435-3.948-2.435-6.627v-.696c0-2.794.765-5.096 2.296-6.905 1.542-1.809 3.606-2.708 6.192-2.696 2.54 0 4.51.765 5.914 2.296 1.403 1.53 2.105 3.6 2.105 6.21v2.765H88.152l-.035.104c.093 1.241.505 2.262 1.235 3.062.742.8 1.745 1.2 3.01 1.2 1.124 0 2.058-.11 2.8-.33.742-.232 1.554-.592 2.435-1.079l1.374 3.131c-.777.615-1.786 1.13-3.026 1.548-1.23.418-2.604.626-4.123.626Zm-.452-15.62c-.94 0-1.681.36-2.226 1.079-.545.719-.882 1.664-1.01 2.835l.053.087h6.227v-.452c0-1.079-.255-1.937-.765-2.574-.499-.65-1.259-.974-2.279-.974Zm10.819 12.211 2.435-.522V21.763l-2.696-.522V18.18h7.427l.226 2.748c.441-.974 1.009-1.733 1.705-2.279.696-.544 1.502-.817 2.418-.817.266 0 .545.023.835.07.301.034.55.08.748.139l-.54 4.627-2.087-.053c-.742 0-1.357.145-1.844.435a2.81 2.81 0 0 0-1.113 1.235v9.15l2.435.521V37h-9.949v-3.044Zm14.454 0 2.453-.522V21.763l-2.714-.522V18.18h7.793v15.254l2.435.522V37h-9.967v-3.044Zm7.532-20.281h-5.079v-3.81h5.079v3.81ZM140.264 37a8.035 8.035 0 0 1-.609-1.965 6.956 6.956 0 0 1-2.209 1.687c-.858.429-1.843.643-2.957.643-1.843 0-3.31-.498-4.4-1.496-1.079-1.008-1.618-2.377-1.618-4.105 0-1.762.707-3.125 2.122-4.087 1.415-.963 3.491-1.444 6.227-1.444h2.592V24.39c0-.904-.261-1.606-.783-2.104-.522-.499-1.293-.748-2.313-.748-.58 0-1.096.07-1.548.209-.453.127-.818.284-1.096.47l-.331 2.017h-3.826l.017-4.175c.928-.626 1.989-1.153 3.183-1.582 1.206-.43 2.517-.644 3.931-.644 2.331 0 4.221.574 5.671 1.722 1.461 1.136 2.191 2.76 2.191 4.87v8.593c.012.255.035.498.07.73l1.548.21V37h-5.862Zm-4.4-3.392c.765 0 1.461-.162 2.087-.487.626-.336 1.113-.754 1.461-1.252v-2.87h-2.592c-1.078 0-1.896.255-2.452.765-.557.499-.835 1.102-.835 1.81 0 .637.203 1.135.609 1.495.417.36.991.54 1.722.54Z"/></defs></svg>
